movekom_app/assets/icons/cable_1.svg

<svg height="166.885" viewBox="0 0 102.068 166.885" width="102.068" xmlns="http://www.w3.org/2000/svg"><g fill="#8d8d8d"><path d="m2.455 9.819h2.455v2.455a2.455 2.455 0 0 0 4.91 0v-2.455h2.455a2.455 2.455 0 0 0 0-4.91h-2.456v-2.454a2.455 2.455 0 0 0 -4.91 0v2.455h-2.454a2.455 2.455 0 0 0 0 4.91z" transform="matrix(-1 0 0 -1 83.321 157.065)"/><path d="m17.183 34.367a17.183 17.183 0 1 0 -17.183-17.184 17.2 17.2 0 0 0 17.183 17.184zm0-29.457a12.274 12.274 0 1 1 -12.273 12.273 12.288 12.288 0 0 1 12.273-12.273z" transform="matrix(-1 0 0 -1 93.14 166.884)"/><path d="m2.455 4.91h9.819a2.455 2.455 0 0 0 0-4.91h-9.819a2.455 2.455 0 0 0 0 4.91z" transform="matrix(-1 0 0 -1 33.477 152.155)"/><path d="m17.183 34.367a17.183 17.183 0 1 0 -17.183-17.184 17.2 17.2 0 0 0 17.183 17.184zm0-29.457a12.274 12.274 0 1 1 -12.273 12.273 12.288 12.288 0 0 1 12.273-12.273z" transform="matrix(-1 0 0 -1 43.296 166.884)"/><path d="m2.455 14.729h9.983a12.288 12.288 0 0 1 12.273 12.271v4.91a2.455 2.455 0 0 0 2.455 2.455h2.455v7.692a2.455 2.455 0 1 0 4.91 0v-7.69h2.455a2.455 2.455 0 0 0 2.455-2.455v-4.912a27.033 27.033 0 0 0 -27-27h-9.986a2.455 2.455 0 0 0 -2.455 2.455v9.819a2.455 2.455 0 0 0 2.455 2.455zm2.455-9.819h7.528a22.118 22.118 0 0 1 22.092 22.09v2.455h-4.91v-2.455a17.2 17.2 0 0 0 -17.183-17.181h-7.527z" transform="matrix(0 1 -1 0 44.514 85.63)"/><path d="m2.455 34.367h2.455v7.692a2.455 2.455 0 1 0 4.909 0v-7.692h2.455a2.455 2.455 0 0 0 2.455-2.455v-4.912a12.288 12.288 0 0 1 12.271-12.271h9.983a2.455 2.455 0 0 0 2.455-2.455v-9.819a2.455 2.455 0 0 0 -2.453-2.455h-9.985a27.033 27.033 0 0 0 -27 27v4.91a2.455 2.455 0 0 0 2.455 2.457zm2.455-7.367a22.118 22.118 0 0 1 22.09-22.09h7.53v4.91h-7.53a17.2 17.2 0 0 0 -17.181 17.18v2.455h-4.909z" transform="matrix(0 -1 1 0 57.555 125.071)"/><path d="m14.079 30.019 1.621-1.494c6.768 0 9.013-4.246 9.013-11.014v-4.911a2.455 2.455 0 0 1 2.455-2.455h2.455v-7.69a2.455 2.455 0 1 1 4.91 0v7.692h2.455a2.455 2.455 0 0 1 2.452 2.453v4.91a27.033 27.033 0 0 1 -27 27h.521c-1.356 0 1.993-3.554 1.993-4.91l.747-6.721c-.001-1.352-2.978-2.86-1.622-2.86zm.872 9.585h-2.513a22.118 22.118 0 0 0 22.092-22.093v-2.455h-4.91v2.455a17.2 17.2 0 0 1 -17.182 17.183l2.513-.566z" transform="matrix(0 -1 1 0 15.558 39.438)"/></g></svg>

<svg xmlns="http://www.w3.org/2000/svg" width="102.068" height="166.885" viewBox="0 0 102.068 166.885">
    <defs>
        <style>
            .prefix__cls-1{fill:#8d8d8d}
        </style>
    </defs>
    <g id="prefix__cable" transform="rotate(180 51.034 83.442)">
        <path id="prefix__Trazado_452" d="M2.455 9.819H4.91v2.455a2.455 2.455 0 0 0 4.91 0V9.819h2.455a2.455 2.455 0 0 0 0-4.91H9.819V2.455a2.455 2.455 0 0 0-4.91 0V4.91H2.455a2.455 2.455 0 0 0 0 4.91z" class="prefix__cls-1" data-name="Trazado 452" transform="translate(18.747 9.819)"/>
        <path id="prefix__Trazado_453" d="M17.183 34.367A17.183 17.183 0 1 0 0 17.183a17.2 17.2 0 0 0 17.183 17.184zm0-29.457A12.274 12.274 0 1 1 4.91 17.183 12.288 12.288 0 0 1 17.183 4.91z" class="prefix__cls-1" data-name="Trazado 453" transform="translate(8.928)"/>
        <path id="prefix__Trazado_454" d="M2.455 4.91h9.819a2.455 2.455 0 0 0 0-4.91H2.455a2.455 2.455 0 0 0 0 4.91z" class="prefix__cls-1" data-name="Trazado 454" transform="translate(68.591 14.729)"/>
        <path id="prefix__Trazado_455" d="M17.183 34.367A17.183 17.183 0 1 0 0 17.183a17.2 17.2 0 0 0 17.183 17.184zm0-29.457A12.274 12.274 0 1 1 4.91 17.183 12.288 12.288 0 0 1 17.183 4.91z" class="prefix__cls-1" data-name="Trazado 455" transform="translate(58.772)"/>
        <path id="prefix__Trazado_456" d="M2.455 14.729h9.983A12.288 12.288 0 0 1 24.711 27v4.91a2.455 2.455 0 0 0 2.455 2.455h2.455v7.692a2.455 2.455 0 1 0 4.91 0v-7.69h2.455a2.455 2.455 0 0 0 2.455-2.455V27a27.033 27.033 0 0 0-27-27H2.455A2.455 2.455 0 0 0 0 2.455v9.819a2.455 2.455 0 0 0 2.455 2.455zM4.91 4.91h7.528A22.118 22.118 0 0 1 34.53 27v2.455h-4.91V27A17.2 17.2 0 0 0 12.437 9.819H4.91z" class="prefix__cls-1" data-name="Trazado 456" transform="rotate(-90 69.404 11.85)"/>
        <path id="prefix__Trazado_457" d="M2.455 34.367H4.91v7.692a2.455 2.455 0 1 0 4.909 0v-7.692h2.455a2.455 2.455 0 0 0 2.455-2.455V27A12.288 12.288 0 0 1 27 14.729h9.983a2.455 2.455 0 0 0 2.455-2.455V2.455A2.455 2.455 0 0 0 36.985 0H27A27.033 27.033 0 0 0 0 27v4.91a2.455 2.455 0 0 0 2.455 2.457zM4.91 27A22.118 22.118 0 0 1 27 4.91h7.53v4.91H27A17.2 17.2 0 0 0 9.819 27v2.455H4.91z" class="prefix__cls-1" data-name="Trazado 457" transform="rotate(90 1.35 43.163)"/>
        <path id="prefix__Trazado_475" d="M14.079 30.019l1.621-1.494c6.768 0 9.013-4.246 9.013-11.014V12.6a2.455 2.455 0 0 1 2.455-2.455h2.455v-7.69a2.455 2.455 0 1 1 4.91 0v7.692h2.455A2.455 2.455 0 0 1 39.44 12.6v4.91a27.033 27.033 0 0 1-27 27h.521c-1.356 0 1.993-3.554 1.993-4.91l.747-6.721c-.001-1.352-2.978-2.86-1.622-2.86zm.872 9.585h-2.513A22.118 22.118 0 0 0 34.53 17.511v-2.455h-4.91v2.455a17.2 17.2 0 0 1-17.182 17.183l2.513-.566z" class="prefix__cls-1" data-name="Trazado 475" transform="rotate(90 -20.468 106.978)"/>
    </g>
</svg>
